packages/dnb-eufemia/assets/icons/trailer.svg

<svg width="16" height="16" viewBox="0 0 16 16" fill="none" xmlns="http://www.w3.org/2000/svg">
<path d="M6.6 9.64218C6.6 10.6682 5.76427 11.5 4.73333 11.5C3.7024 11.5 2.86667 10.6682 2.86667 9.64218M6.6 9.64218C6.6 8.61613 5.76427 7.78436 4.73333 7.78436C3.7024 7.78436 2.86667 8.61613 2.86667 9.64218M6.6 9.64218H12.2M2.86667 9.64218C2.14802 9.64218 1 9.75138 1 8.71327V5.42891C1 4.92296 1.42498 4.5 1.93333 4.5H8.46667C10.5001 4.5 12.2 6.68948 12.2 8.71327V9.64218M12.2 9.64218H15" stroke="black" stroke-width="1.5" stroke-linecap="round" stroke-linejoin="round"/>
</svg>

<svg width="16" height="16" viewBox="0 0 16 16" fill="none" xmlns="http://www.w3.org/2000/svg"><path d="M6.6 9.642A1.862 1.862 0 0 1 4.733 11.5a1.862 1.862 0 0 1-1.866-1.858m3.733 0a1.862 1.862 0 0 0-1.867-1.858c-1.03 0-1.866.832-1.866 1.858m3.733 0h5.6m-9.333 0c-.719 0-1.867.11-1.867-.929V5.43a.94.94 0 0 1 .933-.929h6.534C10.5 4.5 12.2 6.69 12.2 8.713v.93m0 0H15" stroke="#000" stroke-width="1.5" stroke-linecap="round" stroke-linejoin="round"/></svg>
